X:1
T:Bro schottis
R:Schottis
O:Gästrikland
S:efter Lennart Östblom
M:4/4
L:1/8
K:D
D2DD DF AF|B2 AA AF Ad| c2 EE EF GA|B2 AG F4|
D2 DD DF AF| B2 AA AF Ad|c2 EF G2 FE|E2 D2 +fine+D4 ::
K:A 
E2 DE FE DE|FE AB c2 c2|d3/2e/2 dc B2 B2|c3/2d/2 cB A2 A2|
E2 DE FE DE|FE AB c2 c2|d2 cB zd cB|1 A2 A2 A4 :|2 A2 +D.C.+ A2 A=G FE|]

